X: 8
T: the Little Fair Child - 2nd Setting
R: air, waltz, jig
%S: s:4 b:16(4+4+4+4)
B: O'Neill's 1850 #8
Q: "Tenderly"
O: J.O'Neill
Z: Norbert Paap, norbertp@bdu.uva.nl
M: 6/8
L: 1/8
K: D	% and Dm
A/A/ \
| d>ed cde | f>ed e2 (f/e/) | (d>c)(A/G/) FG(A/B/) | c2 A A2 A/A/ |
| d>ed cde | f2 d e2 (f/e/) | dcA G2 (A/G/) | FDD D2 |]
K: Dm
|| D/E/ \
| (F>GA/B/) cAA | BGG cAG | (F>GA/B/) cAG | Add d2 (D/E/) |
| (F>GA/B/) cAG | Ade (fg)(e/d/) | cAF G>(BA/G/) | FDD D2 |]
